static/img/common/ico-pound.svg

<svg width="22" height="22" viewBox="0 0 22 22" fill="none" xmlns="http://www.w3.org/2000/svg">
<path d="M18.53 1H3.93C2.48301 1 1.31 2.17301 1.31 3.62V18.22C1.31 19.667 2.48301 20.84 3.93 20.84H18.53C19.977 20.84 21.15 19.667 21.15 18.22V3.62C21.15 2.17301 19.977 1 18.53 1Z" fill="white" stroke="#231815" stroke-miterlimit="2"/>
<path d="M15.64 9.59996V8.04996H14.47L15.13 4.82996H13.55L12.89 8.04996H10.81L11.47 4.82996H9.89L9.23 8.04996H6.84V9.59996H8.91L8.37 12.24H6.84V13.79H8.05L7.39 17.01H8.97L9.63 13.79H11.71L11.05 17.01H12.63L13.29 13.79H15.64V12.24H13.61L14.15 9.59996H15.64ZM12.03 12.24H9.95L10.49 9.59996H12.57L12.03 12.24Z" fill="#231815"/>
</svg>

<svg xmlns="http://www.w3.org/2000/svg" width="22" height="22" fill="none" viewBox="0 0 22 22"><path fill="#fff" stroke="#231815" stroke-miterlimit="2" d="M18.53 1H3.93a2.62 2.62 0 0 0-2.62 2.62v14.6a2.62 2.62 0 0 0 2.62 2.62h14.6a2.62 2.62 0 0 0 2.62-2.62V3.62A2.62 2.62 0 0 0 18.53 1Z"/><path fill="#231815" d="M15.64 9.6V8.05h-1.17l.66-3.22h-1.58l-.66 3.22h-2.08l.66-3.22H9.89l-.66 3.22H6.84V9.6h2.07l-.54 2.64H6.84v1.55h1.21l-.66 3.22h1.58l.66-3.22h2.08l-.66 3.22h1.58l.66-3.22h2.35v-1.55h-2.03l.54-2.64zm-3.61 2.64H9.95l.54-2.64h2.08z"/></svg>
